assets/icons/comment.svg

<svg width="30" height="29" viewBox="0 0 30 29" fill="none" xmlns="http://www.w3.org/2000/svg">
<path d="M4.875 23C3.58207 23 2.34209 22.4864 1.42785 21.5721C0.513614 20.6579 0 19.4179 0 18.125V5.375C0 4.08207 0.513614 2.84209 1.42785 1.92785C2.34209 1.01361 3.58207 0.5 4.875 0.5H25.125C25.7652 0.5 26.3991 0.626096 26.9906 0.871087C27.582 1.11608 28.1195 1.47517 28.5721 1.92785C29.0248 2.38054 29.3839 2.91796 29.6289 3.50942C29.8739 4.10088 30 4.73481 30 5.375V18.125C30 18.7652 29.8739 19.3991 29.6289 19.9906C29.3839 20.582 29.0248 21.1195 28.5721 21.5721C28.1195 22.0248 27.582 22.3839 26.9906 22.6289C26.3991 22.8739 25.7652 23 25.125 23H16.518L9 28.625C8.72143 28.8335 8.39033 28.9604 8.04377 28.9914C7.6972 29.0224 7.34883 28.9564 7.03764 28.8008C6.72645 28.6451 6.46472 28.4059 6.28173 28.1099C6.09874 27.814 6.00171 27.473 6.0015 27.125V23H4.8765H4.875ZM15.771 20.75H25.125C25.8212 20.75 26.4889 20.4734 26.9812 19.9812C27.4734 19.4889 27.75 18.8212 27.75 18.125V5.375C27.75 4.67881 27.4734 4.01113 26.9812 3.51884C26.4889 3.02656 25.8212 2.75 25.125 2.75H4.875C4.17881 2.75 3.51113 3.02656 3.01884 3.51884C2.52656 4.01113 2.25 4.67881 2.25 5.375V18.125C2.25 19.574 3.426 20.75 4.875 20.75H8.2485V26.375L15.771 20.75Z" fill="#B791F5"/>
</svg>

<svg width="30" height="29" viewBox="0 0 30 29" fill="none" xmlns="http://www.w3.org/2000/svg"><path d="M4.875 23A4.875 4.875 0 010 18.125V5.375A4.875 4.875 0 014.875.5h20.25A4.875 4.875 0 0130 5.375v12.75A4.875 4.875 0 0125.125 23h-8.607L9 28.625a1.875 1.875 0 01-2.998-1.5V23H4.875zm10.896-2.25h9.354a2.625 2.625 0 002.625-2.625V5.375a2.625 2.625 0 00-2.625-2.625H4.875A2.625 2.625 0 002.25 5.375v12.75a2.626 2.626 0 002.625 2.625h3.373v5.625l7.523-5.625z" fill="#B791F5"/></svg>
